app/images/icons/arrow.svg

<?xml version="1.0" encoding="UTF-8"?>
<svg xmlns="http://www.w3.org/2000/svg" xmlns:xlink="http://www.w3.org/1999/xlink" width="32pt" height="32pt" viewBox="0 0 32 32" version="1.1">
<g id="surface1">
<path style=" stroke:none;fill-rule:nonzero;fill:rgb(0%,0%,0%);fill-opacity:1;" d="M 29.824219 7.960938 C 28.394531 5.511719 26.453125 3.574219 24.007812 2.144531 C 21.558594 0.714844 18.882812 0 15.984375 0 C 13.082031 0 10.410156 0.714844 7.960938 2.144531 C 5.511719 3.574219 3.574219 5.511719 2.144531 7.960938 C 0.714844 10.410156 0 13.082031 0 15.984375 C 0 18.882812 0.714844 21.554688 2.144531 24.003906 C 3.574219 26.453125 5.511719 28.394531 7.960938 29.824219 C 10.410156 31.25 13.082031 31.964844 15.984375 31.964844 C 18.882812 31.964844 21.558594 31.25 24.007812 29.824219 C 26.453125 28.394531 28.394531 26.453125 29.824219 24.003906 C 31.25 21.558594 31.964844 18.882812 31.964844 15.984375 C 31.964844 13.082031 31.25 10.410156 29.824219 7.960938 Z M 26.347656 16.898438 L 24.453125 18.792969 C 24.191406 19.054688 23.878906 19.1875 23.515625 19.1875 C 23.15625 19.1875 22.84375 19.054688 22.582031 18.792969 L 18.648438 14.859375 L 18.648438 25.304688 C 18.648438 25.667969 18.515625 25.980469 18.25 26.242188 C 17.988281 26.507812 17.675781 26.636719 17.316406 26.636719 L 14.652344 26.636719 C 14.289062 26.636719 13.976562 26.507812 13.714844 26.242188 C 13.453125 25.980469 13.320312 25.667969 13.320312 25.304688 L 13.320312 14.859375 L 9.386719 18.792969 C 9.136719 19.042969 8.824219 19.167969 8.449219 19.167969 C 8.074219 19.167969 7.761719 19.042969 7.511719 18.792969 L 5.617188 16.898438 C 5.371094 16.648438 5.246094 16.335938 5.246094 15.960938 C 5.246094 15.585938 5.367188 15.277344 5.617188 15.027344 L 15.046875 5.597656 C 15.296875 5.347656 15.609375 5.222656 15.984375 5.222656 C 16.359375 5.222656 16.671875 5.347656 16.917969 5.597656 L 26.347656 15.027344 C 26.597656 15.273438 26.722656 15.585938 26.722656 15.960938 C 26.722656 16.335938 26.597656 16.648438 26.347656 16.898438 Z M 26.347656 16.898438 "/>
</g>
</svg>

<svg xmlns="http://www.w3.org/2000/svg" width="32pt" height="32pt" viewBox="0 0 32 32"><path d="M29.824 7.96a15.942 15.942 0 00-5.816-5.815C21.558.715 18.883 0 15.984 0c-2.902 0-5.574.715-8.023 2.145A15.913 15.913 0 002.145 7.96C.715 10.41 0 13.082 0 15.984c0 2.899.715 5.57 2.145 8.02a15.923 15.923 0 005.816 5.82c2.45 1.426 5.121 2.14 8.023 2.14 2.899 0 5.575-.714 8.024-2.14a15.953 15.953 0 005.816-5.82c1.426-2.445 2.14-5.121 2.14-8.02 0-2.902-.714-5.574-2.14-8.023zm-3.476 8.938l-1.895 1.895a1.281 1.281 0 01-.937.395 1.28 1.28 0 01-.934-.395l-3.934-3.934v10.446c0 .363-.132.675-.398.937a1.264 1.264 0 01-.934.395h-2.664a1.27 1.27 0 01-.937-.395 1.281 1.281 0 01-.395-.937V14.859l-3.933 3.934c-.25.25-.563.375-.938.375s-.687-.125-.937-.375l-1.895-1.895a1.284 1.284 0 01-.37-.937c0-.375.12-.684.37-.934l9.43-9.43c.25-.25.562-.374.937-.374s.688.125.934.375l9.43 9.43c.25.245.375.558.375.933s-.125.687-.375.937zm0 0" id="surface1"/></svg>
